X:1
T:Jesus! Wonderful Name!
T:C. L. Dorris
T:Jesus! Wonderful Name!
T:Public Domain
T:Public Domain
C:C. L. Dorris
Z:Public Domain
%%score ( 1 2 ) ( 3 4 )
L:1/8
M:6/8
K:Ab
V:1 treble 
V:2 treble 
V:3 bass 
V:4 bass 
V:1
 [CE] | [CE][A,C][B,D] [CE][EA][EB] | [Ec][Fd]>[Ec] [Ec][EB][EB] | [EB]E[EG] [EB][Ec][Ed] | %4
w: 1.~Oh,|won- der- ful name, how my|heart thrills to hear it— The|name of my ris- en Re-|
w: 2.~When|lost in my sin, ’twas the|name of my Sav- ior That|ban- ished my fear and brought|
w: 3.~I|think of the cross where He|suf- fered to save me, And|oh, how my heart thrills with|
 [Ed][Ec][EB] [Ec]2 [CE] | [CE][A,C][B,D] [CE][EA][EB] | [Ec][Ed][_Ge] [Ge][Fd][Fd] | %7
w: er and King! It falls|like the mu- sic of Heav’n|on my spir- it, And fills|
w: to my soul; I’ll sing|it in glo- ry for- ev-|er and ev- er With joy|
w: ry di- vine To know|it is life ev- er- last-|ing He gave me, When, sin-|
 [Ec][CE][Ec] [=DB][DF][Dc] | [EB][EB][Ec] [Ed]3 ||"^Refrain" [Ec]3 [CA]3 | [DB][DA][DF] [CE]3 | %11
w: me with rap- ture di- vine|while I sing. *|||
w: while the years of e- ter-|ni- ty roll. *|||
w: less, He died for a soul|such as mine. *|||
 [CE][EA][EB] [Ec]2 [Ec] | [Ed]2 [Ec] [EB]3 | [Ec]3 [_GA]3 | [FB][FA][DF] [CE]3 | %15
w: ||||
w: ||||
w: ||||
 [DF][FA][Fd] [Ec]2 [CA] | [Ec]2 [DB] [CA]2 |] %17
w: ||
w: ||
w: ||
V:2
 x | x6 | x6 | x E x4 | x6 | x6 | x6 | x6 | x6 || x6 | x6 | x6 | x6 | x6 | x6 | x6 | x5 |] %17
w: |||deem-||||||||||||||
w: |||peace||||||||||||||
w: |||glo-||||||||||||||
V:3
 [A,,A,] | [A,,A,][A,,E,][A,,E,] [A,,A,][C,A,][E,G,] | A,A,>A, [E,A,][E,G,][E,G,] | %3
w: ~|~ ~ ~ ~ ~ ~|~ ~ ~ ~ ~ ~|
 [E,G,][E,G,][E,B,] [E,G,][E,A,][E,B,] | [E,B,][E,A,][E,G,] A,2 [A,,A,] | %5
w: ~ ~ ~ ~ ~ ~|~ ~ ~ ~ ~|
 [A,,A,][A,,E,][A,,E,] [A,,A,][C,A,][E,G,] | A,[A,B,][A,C] [D,A,][D,A,][D,A,] | %7
w: ~ ~ ~ ~ ~ ~|~ ~ ~ ~ ~ ~|
 [E,A,][E,A,][E,A,] [F,A,][B,,A,][B,,A,] | [E,G,][E,G,][E,A,] [E,A,]3 || [A,,A,]3 [A,,E,]3 | %10
w: ~ ~ ~ ~ ~ Je-|sus! won- der- ful|name! Sweet-|
 [D,F,][D,F,][D,A,] [A,,A,]3 | [A,,A,][C,A,][E,G,] A,2 A, | [G,B,]2 A, [E,G,]3 | [A,,A,]3 [C,A,]3 | %14
w: er than all the|world to me; Je- sus!|the same— Now|thro’ all|
 [D,D][D,D][D,A,] [A,,A,]3 | [D,A,][D,A,][D,A,] [E,A,]2 [E,A,] | [E,A,]2 [E,G,] [A,,E,A,]2 |] %17
w: e- ter- ni- ty.|||
V:4
 x | x6 | A,A,>A, x3 | x6 | x3 A,2 x | x6 | A, x5 | x6 | x6 || x6 | x6 | x3 A,2 A, | x2 A, x3 | %13
w: ||~ ~ ~||~||~|||||ev- er|and|
 x6 | x6 | x6 | x5 |] %17
w: ||||

